X: 1
T: Hang On
M: 4/4
L: 1/8
R: reel
K: Gmaj
G2BG AG~G2|DBAG EA~A2|DBAG EGGA|(3Bcd eg edBA|
G3B AG~G2|DBAG EGBc|dGBd cAAB|1 FGBd AGGD:|2 FGBd AGBc||
|:d2 (3Bcd gBGB|d2e=f ec~c2|d2 (3Bcd gBGB|dGBd cABc|
d2 (3Bcd gB=fe|d2e=f ec~c2|dGBd cAAB|1 FGBd AGBc:|2 FGBd AGGD||
